remix/Map/compass-3-line.svg

<svg viewBox="0 0 24 24" fill="currentColor" xmlns="http://www.w3.org/2000/svg"><path d="M12 22C6.47715 22 2 17.5228 2 12C2 6.47715 6.47715 2 12 2C17.5228 2 22 6.47715 22 12C22 17.5228 17.5228 22 12 22ZM12 20C16.4183 20 20 16.4183 20 12C20 7.58172 16.4183 4 12 4C7.58172 4 4 7.58172 4 12C4 16.4183 7.58172 20 12 20ZM16.5 7.5L14 14L7.5 16.5L10 10L16.5 7.5ZM12 13C12.5523 13 13 12.5523 13 12C13 11.4477 12.5523 11 12 11C11.4477 11 11 11.4477 11 12C11 12.5523 11.4477 13 12 13Z"/></svg>

<svg viewBox="0 0 24 24" xmlns="http://www.w3.org/2000/svg"><path fill="none" d="M0 0h24v24H0Z"/><path d="M12 22C6.477 22 2 17.523 2 12 2 6.477 6.477 2 12 2c5.523 0 10 4.477 10 10s-4.477 10-10 10Zm0-2v0c4.41 0 8-3.59 8-8 0-4.42-3.59-8-8-8v0c-4.42 0-8 3.58-8 8 0 4.41 3.58 8 8 8Zm4.5-12.5L14 14l-6.5 2.5L10 10l6.5-2.5ZM12 13v0c.55 0 1-.45 1-1 0-.56-.45-1-1-1v0c-.56 0-1 .44-1 1 0 .55.44 1 1 1Z"/></svg>
